X:1
T:Saint Cross, 10.4.10.4 D
T:Saint Cross, 10.4.10.4 D
T:Frank Lambert, 1899
T:Public Domain Courtesy of the Cyber Hymnal™
C:Frank Lambert, 1899
Z:Public Domain
Z:Courtesy of the Cyber Hymnal™
%%score ( 1 2 ) ( 3 4 )
L:1/8
Q:1/4=98
M:4/4
K:F
V:1 treble 
V:2 treble 
V:3 bass 
V:4 bass 
V:1
 [FA]2 | [FA]3 [FA] [F^G][FA][Fc][FA] | [EA]3 [EG] [EG]4 | F4 [CF]2 [CG]2 | [CA]6 [Fc]2 | %5
 [Fc]3 [Fc] [F=B][Fc][Fd][Fc] | [EA]3 [EG] (F2 ^F2) | [DG]4 [DB]2 [DG]2 | [CE]6 [_EF]2 | %9
 [_EF]3 [EG] [EA][FB][Fc]F | [Fd]2 [cd]2 [=Bd]4 | [FG]4 [F_e]2 [Fd]2 | [_Ec]6 [=Ec]2 | %13
 [Ed]3 [Fc] [EB][^DA][EB][EG] | [Ff]2 [EA]2 [DF]2 [DB]2 | G6 [CF]2 | [CF]6 |] %17
V:2
 x2 | x8 | x8 | (F2 ED) x4 | x8 | x8 | x4 D4 | x8 | x8 | x7 F | x8 | x8 | x8 | x8 | x8 | %15
 (F2 ED E2) x2 | x6 |] %17
V:3
 [F,C]2 | [F,C]3 [F,C] [F,=B,][F,C][A,C][F,C] | [C,C]3 [C,B,] [C,B,]2 [^C,A,]2 | %3
 A,3 [B,,B,] [A,,C]2 [G,,B,]2 | [F,,A,]6 [F,A,]2 | [F,A,]3 [A,C] [^G,D][A,C]B,[A,C] | %6
 (C2 A,)[^C,A,] A,4 | [B,,G,]4 [G,,G,]2 [B,,G,]2 | [C,G,]6 [A,C]2 | %9
 [A,C]3 [G,C] [F,C][G,_E][A,E][CE] | [B,D]2 [_A,F]2 [G,F]4 | [G,=B,]4 [G,A,]2 [G,B,]2 | C6 [B,C]2 | %13
 [B,C]3 [A,C] [G,C][^F,C][G,C][B,C] | [A,C]2 [A,,D]2 [D,A,]2 [G,,B,]2 | [C,B,]6 [C,B,]2 | %16
 [F,,A,]6 |] %17
V:4
 x2 | x8 | x8 | D,2 C, x5 | x8 | x6 B, x | ^C,3 (D,2 =C,2) x | x8 | x8 | x8 | x8 | x8 | C6 x2 | %13
 x8 | x8 | x8 | x6 |] %17

